X:1
T:Title
%%score { 1 | 2 }
L:1/8
M:3/4
K:Eb
V:1 treble nm="Grand Piano"
V:2 bass 
V:1
 z2 z z/[Q:1/4=90] E/ E>G | [GB]3 [EG] [DF]>[EG] | E3 E E>G | B3 G E>G | %4
[M:7/16] [B,DF]/-[B,DF]/-[B,DF]/-[B,DF]-<[B,DF] |[M:5/16] [B,EG]<[B,EG][B,EG]/ | %6
[M:3/4] [EGB]3 [EG] [EA]>[EGB] | [EAc]3 [EAc] [EGB]>[B,FA] | [B,EG]3 [CDA] [B,EG]F |[M:2/4] E4 | %10
[M:1/4] E>G |[M:3/4] B3 G [A,DF]>[B,EG] | [G,B,E]4 [G,B,E]>[B,EG] | [EGB]3 [B,EG] [B,E]>[B,EG] | %14
[M:2/4] [B,DF]4 |[M:1/4] [B,EG]>[B,FA] |[M:3/4] [EGB]3 [EG] [EA]>[EGB] | %17
[M:15/16] [EAc]3/2- [EAc]3 [E_Gc][E=GB]/-[EGB][B,FA]/ | %18
[M:3/4] [B,EG]3 [CDA] [B,EG][A,B,F][Q:1/4=87][Q:1/4=84][Q:1/4=82][Q:1/4=79][Q:1/4=76][Q:1/4=73][Q:1/4=70] | %19
[M:7/16] [G,B,E]/-[G,B,E]/-[G,B,E]/-[G,B,E]-<[G,B,E] |] %20
V:2
 z2 z z/ [D,G,B,]/ [E,G,B,]>[E,B,E] | [E,E]3 [E,B,] [B,,A,]>[B,,B,] | %2
 [E,G,B,]3 [E,G,B,] [E,G,B,]>[E,B,E] | [E,G,E]3 [E,B,E] [G,B,]>[E,B,E] | %4
[M:7/16] B,,/-B,,/-B,,/-B,,-<B,, |[M:5/16] E,<E,E,/ |[M:3/4] E,3 _D, C,>B,, | A,,3 A,, B,,>B,, | %8
 B,,3 B,, B,,[B,,A,B,] |[M:2/4] [E,G,B,]4 |[M:1/4] [E,G,B,]>[E,B,E] | %11
[M:3/4] [E,G,E]3 [E,B,E] B,,>B,, | E,4 E,>E, | E,3 E, G,>E, |[M:2/4] B,,4 |[M:1/4] E,>E, | %16
[M:3/4] E,3 _D, C,>B,, |[M:15/16] A,,3/2- A,,3 A,,B,,/-B,,B,,/ |[M:3/4] B,,3 B,, B,,B,, | %19
[M:7/16] E,/-E,/-E,/-E,-<E, |] %20

